packages/core/src/svgs/tokens/branded/UMAMI.svg

<svg width="24" height="24" viewBox="0 0 24 24" fill="none" xmlns="http://www.w3.org/2000/svg">
<path d="M3.88008 16.9969H2.00625V19.183C2.00625 20.9319 3.67396 21.3691 4.50469 21.3691H19.4954C21.4941 21.3691 21.9937 19.6702 21.9937 18.8207V16.9969H9.50156V18.0899C9.50156 18.4522 9.10805 19.183 8.25235 19.183C7.39664 19.183 7.00314 18.4522 7.00314 18.0899V16.9969H6.37853V19.4953C6.37853 20.4323 5.84137 20.7445 5.1293 20.7445C4.5609 20.7445 3.88008 20.4323 3.88008 19.5453V16.9969ZM2.00625 12.3123C2.00625 11.7939 2.4872 11.3754 3.07433 11.3754H20.932C21.5191 11.3754 22 11.7939 22 12.3123C22 12.8307 21.5191 13.2492 20.932 13.2492H3.06809C2.48095 13.2492 2 12.8307 2 12.3123H2.00625Z" fill="white"/>
<path fill-rule="evenodd" clip-rule="evenodd" d="M12.0001 2.63086C4.61722 2.63086 2.00635 6.3223 2.00635 8.53343V10.7508H21.9938V8.53343C21.9938 6.3223 18.5585 2.63086 12.0001 2.63086ZM10.2138 3.36789C8.07132 3.36789 3.71777 4.69832 3.43671 10.0138H5.21684C5.34177 8.41475 6.50354 4.84823 10.2138 3.36789Z" fill="white"/>
<path d="M2.00635 15.2043V13.2493C2.36237 13.6428 3.29304 14.4236 4.14876 14.4236C5.21684 14.4236 5.62285 13.2493 6.69092 13.2493C7.75901 13.2493 8.07132 14.4236 8.78961 14.4236C9.50165 14.4236 9.31423 13.2493 10.751 13.2493C12.1875 13.2493 12.0001 14.4236 13.0683 14.4236C14.1425 14.4236 13.3367 13.2493 15.1232 13.2493C16.9096 13.2493 16.2849 14.4236 17.3531 14.4236C18.4274 14.4236 17.709 13.2493 19.4955 13.2493C20.9258 13.2493 20.9258 14.8108 21.9938 14.8108V16.3723C20.5635 16.3723 20.4323 15.1231 19.4955 15.1231C18.5585 15.1231 18.7834 16.3723 17.3531 16.3723C15.9289 16.3723 16.1912 15.1231 15.1232 15.1231C14.0551 15.1231 14.4986 16.3723 13.0683 16.3723C11.6441 16.3723 11.819 15.1231 10.751 15.1231C9.68281 15.1231 10.2138 16.3723 8.78961 16.3723C7.35927 16.3723 7.75901 15.1231 6.69092 15.1231C5.62285 15.1231 5.57287 16.3723 4.14876 16.3723C3.72318 16.3652 3.30576 16.2544 2.93251 16.0498C2.55927 15.8453 2.2414 15.5529 2.00635 15.1981V15.2043Z" fill="white"/>
</svg>

<svg xmlns="http://www.w3.org/2000/svg" width="24" height="24" fill="none" viewBox="0 0 24 24">
    <path fill="#fff" d="M3.88 16.997H2.006v2.186c0 1.749 1.668 2.186 2.499 2.186h14.99c2 0 2.499-1.699 2.499-2.548v-1.824H9.502v1.093c0 .362-.394 1.093-1.25 1.093-.855 0-1.249-.73-1.249-1.093v-1.093H6.38v2.498c0 .937-.538 1.25-1.25 1.25-.568 0-1.249-.313-1.249-1.2zm-1.874-4.685c0-.518.481-.937 1.068-.937h17.858c.587 0 1.068.419 1.068.937 0 .519-.48.937-1.068.937H3.068c-.587 0-1.068-.418-1.068-.937z"/>
    <path fill="#fff" fill-rule="evenodd" d="M12 2.63c-7.383 0-9.994 3.692-9.994 5.903v2.218h19.988V8.533c0-2.21-3.436-5.902-9.994-5.902m-1.786.738c-2.143 0-6.496 1.33-6.777 6.646h1.78c.125-1.6 1.287-5.166 4.997-6.646" clip-rule="evenodd"/>
    <path fill="#fff" d="M2.006 15.204V13.25c.356.394 1.287 1.175 2.143 1.175 1.068 0 1.474-1.175 2.542-1.175s1.38 1.175 2.099 1.175c.712 0 .524-1.175 1.961-1.175s1.25 1.175 2.317 1.175c1.075 0 .269-1.175 2.055-1.175s1.162 1.175 2.23 1.175c1.074 0 .356-1.175 2.142-1.175 1.43 0 1.43 1.562 2.499 1.562v1.561c-1.43 0-1.562-1.249-2.498-1.249s-.713 1.25-2.143 1.25c-1.424 0-1.162-1.25-2.23-1.25s-.624 1.25-2.055 1.25c-1.424 0-1.249-1.25-2.317-1.25s-.537 1.25-1.961 1.25c-1.43 0-1.031-1.25-2.1-1.25-1.067 0-1.117 1.25-2.541 1.25a2.62 2.62 0 0 1-2.143-1.175z"/>
</svg>
